X:1
T:O God of hosts, the mighty Lord
T:O God of hosts, the mighty Lord (Joseph Stephenson)
C:Joseph Stephenson
Z:Text: Tate/Brady on Ps. 84
%%score [ 1 2 3 4 ]
L:1/8
M:3/2
K:G
V:1 treble nm="Treble" snm="Tr."
V:2 treble nm="Alto" snm="A."
V:3 treble-8 transpose=-12 nm="Tenor" snm="T."
V:4 bass nm="Bass" snm="B."
V:1
 B4 G4 F4 | G6 B2 c4 | A4 B4 d4 | (d4 c4) B4 | A8 A4 | F8 A4 | G8 d4 | (d6 c2) B4 | %8
w: For in thy|courts one sin-|gle day ’Tis|bet- * ter|to at-|tend, Than,|Lord, in|a- * ny|
w: O God of|hosts, the migh-|ty Lord, How|love- * ly|is the|place Where|thou, en-|thron’d _ in|
w: My long- ing|soul faints with|de- sire To|view _ thy|blest a-|bode; My|pan- ting|heart _ and|
 (e2 d2 c2 B2 A2 G2 | A2 B2 c2 B2 A2) G2 | F8 d4 | (B3 c B2 c2) d4 | (d6 c2) B4 | e4 (Td6 c2) | %14
w: place _ _ _ _ _|_ _ _ _ _ be-|sides A|thou- * * * sand,|thou- * sand|days to _|
w: glo- * * * * *|* * * * * ry|shew’st The|bright- * * * ness,|bright- * ness|of thy _|
w: flesh _ _ _ _ _|_ _ _ _ _ cry|out For|thee, _ _ _ for|thee, _ the|li- ving _|
 B12 |] %15
w: spend.|
w: face.|
w: God.|
V:2
 D8 D2 D2 | D4 G4 E4 | D4 D4 G4 | A8 G4 | F8 E4 | D8 F4 | E8 F4 | G8 G4 | E12- | E8 ^C4 | D8 D4 | %11
w: For in thy|courts one sin-|gle day ’Tis|bet- ter|to at-|tend, Than,|Lord, in|a- ny|place|_ be-|sides A|
w: O God of|hosts, the migh-|ty Lord, How|love- ly|is the|place Where|thou, en-|thron’d in|glo-|* ry|shew’st The|
w: My long- ing|soul faints with|de- sire To|view thy|blest a-|bode; My|pan- ting|heart and|flesh|_ cry|out For|
 (G3 A G2 F2) G4 | G2 G2 D4 D4 | G2 G2 G4 F4 | G12 |] %15
w: thou- * * * sand|days to spend, a|thou- sand days to|spend.|
w: bright- * * * ness|of thy face, the|bright- ness of thy|face.|
w: thee, _ _ _ the|li- ving God, for|thee, the li- ving|God.|
V:3
 G4 B4 (A3 B) | B6 G2 A4 | F4 G4 (B3 c) | d8 d4 | (d4 e4) ^c4 | d8 d4 | G8 (A3 B) | (B6 A2) G4 | %8
w: For in thy _|courts one sin-|gle day ’Tis _|bet- ter|to _ at-|tend, Than,|Lord, in _|a- * ny|
w: O God of _|hosts, the migh-|ty Lord, How _|love- ly|is _ the|place Where|thou, en- *|thron’d _ in|
w: My long- ing _|soul faints with|de- sire To _|view thy|blest _ a-|bode; My|pan- ting _|heart _ and|
 (c6 d2 e2 d2 | c2 B2 A2 G2 F2) E2 | D8 z4 | z4 z4 d4 | (B3 c B2 c2) d4 | c4 (TA6 G2) | G12 |] %15
w: place _ _ _|_ _ _ _ _ be-|sides|A|thou- * * * sand|days to _|spend.|
w: glo- * * *|* * * * * ry|shew’st|The|bright- * * * ness|of thy _|face.|
w: flesh _ _ _|_ _ _ _ _ cry|out|For|thee, _ _ _ the|li- ving _|God.|
V:4
"^Notes: The alto part is printed in the alto clef in the source.The text is indicated in the source by the heading ‘Ps: 84th’, and the first and last lines of the first verseare underlaid. This first verse has here been given in full and a selection of subsequent verses from thetext have been added." G,8 D,2 D,2 | %1
w: For in thy|
w: O God of|
w: My long- ing|
 G,4 E,4 C,4 | D,4 G,,4 G,4 | F,8 G,4 | A,8 A,,4 | D,8 D,4 | E,8 D,4 | (G,6 A,2) B,4 | %8
w: courts one sin-|gle day ’Tis|bet- ter|to at-|tend, Than,|Lord, in|a- * ny|
w: hosts, the migh-|ty Lord, How|love- ly|is the|place Where|thou, en-|thron’d _ in|
w: soul faints with|de- sire To|view thy|blest a-|bode; My|pan- ting|heart _ and|
 (A,6 B,2 C2 B,2 | A,2 G,2 F,2 G,2 A,2) A,,2 | D,8 z4 | z4 z4 D,4 | (G,3 A, G,2 F,2) G,4 | %13
w: place _ _ _|_ _ _ _ _ be-|sides|A|thou- * * * sand|
w: glo- * * *|* * * * * ry|shew’st|The|bright- * * * ness|
w: flesh _ _ _|_ _ _ _ _ cry|out|For|thee, _ _ _ the|
 C,4 D,8 | G,,12 |] %15
w: days to|spend.|
w: of thy|face.|
w: li- ving|God.|

